X:699
T:O'Carolan's Farewell
R:
C:O'Carolan
B:O'Neill's 699
D:
Z: 1997 by John Chambers <jc@trillian.mit.edu>
N:"With feeling."
M:C
L:1/8
K:Gm
GFGA B2AG|A2cd f2dc|fdcA dcAG|G4 D3G|
|GFGA BABG|A2fa Hg3f|d3f c3d|BcBAGF G3||
d|g3a gfga|gfga g2de|f4 fefg|fgfg f2d2|
|g3a c'bagf|gfga g2de|fefg ba2fg|ggfd fdcA|
|dcAG F2D2|GFGA BABG|A2fa Hg3f|d2df c2cd|BcBAGF G3z|]
